assets/features/load-balancer.svg

<?xml version="1.0" encoding="UTF-8"?>
<svg width="16px" height="16px" viewBox="0 0 16 16" version="1.1" xmlns="http://www.w3.org/2000/svg" xmlns:xlink="http://www.w3.org/1999/xlink">
    <!-- Generator: Sketch 49.2 (51160) - http://www.bohemiancoding.com/sketch -->
    <title>Load  Balancer</title>
    <desc>Created with Sketch.</desc>
    <defs></defs>
    <g id="load-balancer-16px" stroke="none" stroke-width="1" fill="none" fill-rule="evenodd">
        <path d="M8.20350147,8.74046634 L10.8170991,11.3540639 C11.3237959,11.0057208 12.0225194,11.0568823 12.4731107,11.5074736 C12.9812765,12.0156394 12.9814166,12.8393988 12.4734236,13.3473918 C11.9654307,13.8553848 11.1416712,13.8552446 10.6335055,13.3470789 C10.1809674,12.8945408 10.131318,12.1917219 10.4846331,11.6845106 L7.85317846,9.05305593 C7.65595791,9.1733839 7.42419823,9.24271501 7.17623988,9.24271501 C6.53625442,9.24271501 6.00417899,8.78085443 5.89535792,8.17237036 L3.61337184,8.17237036 C3.50455077,8.78085443 2.97247533,9.24271501 2.33248988,9.24271501 C1.61383494,9.24271501 1.03125,8.66032821 1.03125,7.94191769 C1.03125,7.22350716 1.61383494,6.64112036 2.33248988,6.64112036 C2.96972222,6.64112036 3.49997096,7.09901579 3.61194397,7.70362036 L5.89678579,7.70362036 C6.0087588,7.09901579 6.53900754,6.64112036 7.17623988,6.64112036 C7.45529134,6.64112036 7.71382693,6.72892942 7.9257053,6.87841509 L10.4856428,4.31847763 C10.1372996,3.81178076 10.1884612,3.11305732 10.6390525,2.66246601 C11.1472183,2.15430023 11.9709777,2.15416012 12.4789706,2.66215308 C12.9869636,3.17014603 12.9868235,3.99390545 12.4786577,4.50207123 C12.0261196,4.95460929 11.3233007,5.00425868 10.8160894,4.65094359 L8.25409996,7.21293304 C8.3526201,7.35821969 8.42251715,7.52448026 8.45569397,7.70362036 L12.3655358,7.70362036 C12.4775088,7.09901579 13.0077575,6.64112036 13.6449899,6.64112036 C14.3636448,6.64112036 14.9462298,7.22350716 14.9462298,7.94191769 C14.9462298,8.66032821 14.3636448,9.24271501 13.6449899,9.24271501 C13.0050044,9.24271501 12.472929,8.78085443 12.3641079,8.17237036 L8.45712184,8.17237036 C8.41929903,8.38386043 8.33034538,8.57763779 8.20350147,8.74046634 Z" id="Combined-Shape" fill="#689BFF"></path>
        <g id="Group" transform="translate(11.546875, 7.968750) rotate(-45.000000) translate(-11.546875, -7.968750) translate(7.093750, 3.531250)"></g>
    </g>
</svg>

<?xml version="1.0" encoding="UTF-8" standalone="no"?>
<svg
   xmlns:dc="http://purl.org/dc/elements/1.1/"
   xmlns:cc="http://creativecommons.org/ns#"
   xmlns:rdf="http://www.w3.org/1999/02/22-rdf-syntax-ns#"
   xmlns:svg="http://www.w3.org/2000/svg"
   xmlns="http://www.w3.org/2000/svg"
   xmlns:sodipodi="http://sodipodi.sourceforge.net/DTD/sodipodi-0.dtd"
   xmlns:inkscape="http://www.inkscape.org/namespaces/inkscape"
   width="16px"
   height="16px"
   viewBox="0 0 16 16"
   version="1.1"
   id="svg11"
   sodipodi:docname="load-balancer.svg"
   inkscape:version="0.92.3 (2405546, 2018-03-11)">
  <metadata
     id="metadata15">
    <rdf:RDF>
      <cc:Work
         rdf:about="">
        <dc:format>image/svg+xml</dc:format>
        <dc:type
           rdf:resource="http://purl.org/dc/dcmitype/StillImage" />
      </cc:Work>
    </rdf:RDF>
  </metadata>
  <sodipodi:namedview
     pagecolor="#ffffff"
     bordercolor="#666666"
     borderopacity="1"
     objecttolerance="10"
     gridtolerance="10"
     guidetolerance="10"
     inkscape:pageopacity="0"
     inkscape:pageshadow="2"
     inkscape:window-width="2560"
     inkscape:window-height="1346"
     id="namedview13"
     showgrid="false"
     inkscape:zoom="14.75"
     inkscape:cx="8"
     inkscape:cy="8"
     inkscape:window-x="-11"
     inkscape:window-y="-11"
     inkscape:window-maximized="1"
     inkscape:current-layer="svg11" />
  <!-- Generator: Sketch 49.2 (51160) - http://www.bohemiancoding.com/sketch -->
  <title
     id="title2">Load  Balancer</title>
  <desc
     id="desc4">Created with Sketch.</desc>
  <defs
     id="defs6" />
  <g
     id="load-balancer-16px"
     transform="matrix(1.14984,0,0,1.14984,-1.1857728,-1.2042077)"
     style="fill:none;fill-rule:evenodd;stroke:none;stroke-width:1">
    <path
       d="m 8.2035015,8.7404663 2.6135975,2.6135977 c 0.506697,-0.348343 1.20542,-0.297182 1.656012,0.15341 0.508166,0.508165 0.508306,1.331925 3.13e-4,1.839918 -0.507993,0.507993 -1.331753,0.507853 -1.839918,-3.13e-4 -0.452539,-0.452538 -0.502188,-1.155357 -0.148873,-1.662568 L 7.8531785,9.0530559 C 7.6559579,9.1733839 7.4241982,9.242715 7.1762399,9.242715 6.5362544,9.242715 6.004179,8.7808544 5.8953579,8.1723704 H 3.6133718 C 3.5045508,8.7808544 2.9724753,9.242715 2.3324899,9.242715 1.6138349,9.242715 1.03125,8.6603282 1.03125,7.9419177 c 0,-0.7184105 0.5825849,-1.3007973 1.3012399,-1.3007973 0.6372323,0 1.1674811,0.4578954 1.2794541,1.0625 h 2.2848418 c 0.111973,-0.6046046 0.6422217,-1.0625 1.2794541,-1.0625 0.2790514,0 0.537587,0.087809 0.7494654,0.2372947 L 10.485643,4.3184776 C 10.1373,3.8117808 10.188461,3.1130573 10.639053,2.662466 11.147218,2.1543002 11.970978,2.1541601 12.478971,2.6621531 12.986964,3.170146 12.986824,3.9939055 12.478658,4.5020712 12.02612,4.9546093 11.323301,5.0042587 10.816089,4.6509436 L 8.2541,7.212933 c 0.09852,0.1452867 0.1684171,0.3115473 0.201594,0.4906874 h 3.909842 c 0.111973,-0.6046046 0.642222,-1.0625 1.279454,-1.0625 0.718655,0 1.30124,0.5823868 1.30124,1.3007973 0,0.7184105 -0.582585,1.3007973 -1.30124,1.3007973 -0.639986,0 -1.172061,-0.4618606 -1.280882,-1.0703446 H 8.4571218 C 8.419299,8.3838604 8.3303454,8.5776378 8.2035015,8.7404663 Z"
       id="Combined-Shape"
       inkscape:connector-curvature="0"
       style="fill:#689bff" />
    <g
       id="Group"
       transform="rotate(-45,12.262596,-2.3597887)" />
  </g>
</svg>
